X: 1584
T: Lady Day
R:hornpipe
N:"Collected by F. O'Neill"
B:O'Neill's 1584
Z:Transcribed by Michael Hogan
M:2/4
L:1/16
K:G
(Bd) | DFBc d2(cd) | edcB G2(FE) | DEFG ABcA | Bd^ce d2(Bd) |
edBA GABG | AGFG E2(FE) | DEFG ABcA | (3GAG Bd "H"g2 | |
(D/E/F/G/) | B2BA B2BA | GAB^c d2(cd) | edcB ABAG | (3FGF (3EFE DEFD |
ABAF BcBG | ABAF G2(AB) | cBAG FGEF | D2d2 "D.C."d2 ||


